images/space-ship.svg

<svg width="58" height="71" viewBox="0 0 58 71" xmlns="http://www.w3.org/2000/svg"><title>Artboard</title><g transform="rotate(180 27.5 34)" fill="none" fill-rule="evenodd"><path d="M50.521 45.042h-8l-1.086-5.433a20.722 20.722 0 0 1 .216-9.087 20.694 20.694 0 0 1 2.861-6.466l.97-1.455a1.25 1.25 0 0 1 2.08 0l.97 1.455a20.707 20.707 0 0 1 3.077 15.553l-1.088 5.433zM9.521 45.042h-8L.435 39.609a20.722 20.722 0 0 1 .216-9.087 20.694 20.694 0 0 1 2.861-6.466l.97-1.455a1.25 1.25 0 0 1 2.08 0l.97 1.455a20.707 20.707 0 0 1 3.077 15.553l-1.088 5.433zM28.299 2.267L26.032 0l-2.267 2.267c-9.962 9.962-11.672 25.051-5.129 36.773a.6.6 0 0 0 .015.026c1.492 2.64 2.381 5.58 2.381 8.612v1.363h10v-1.363c0-3.033.891-5.972 2.381-8.613l.013-.023c6.545-11.722 4.835-26.813-5.127-36.775z" fill="#E6E6E6"/><g fill="#A5A5A4"><path d="M36.584 30.637a30.673 30.673 0 0 1-2.243 6.598l7.564 4.728-.471-2.353a20.715 20.715 0 0 1-.292-6.124l-4.558-2.849zM15.48 30.637l-4.579 2.862c.202 2.035.11 4.094-.293 6.11l-.474 2.369 7.59-4.744a30.54 30.54 0 0 1-2.244-6.597z"/></g><circle fill="#556080" cx="26.032" cy="14.042" r="5"/><circle fill="#8697CB" cx="26.032" cy="27.042" r="3"/><circle fill="#8697CB" cx="26.032" cy="38.042" r="3"/><path fill="#38454F" d="M32.032 56.042h-12l1-7h10z"/><path d="M24.032 54.042a1 1 0 0 1-1-1v-1a1 1 0 0 1 2 0v1a1 1 0 0 1-1 1zM28.032 54.042a1 1 0 0 1-1-1v-1a1 1 0 0 1 2 0v1a1 1 0 0 1-1 1z" fill="#546A79"/></g></svg>

<?xml version="1.0" encoding="UTF-8" standalone="no"?>
<svg width="58px" height="71px" viewBox="0 0 58 71" version="1.1" xmlns="http://www.w3.org/2000/svg" xmlns:xlink="http://www.w3.org/1999/xlink">
    <!-- Generator: Sketch 39.1 (31720) - http://www.bohemiancoding.com/sketch -->
    <title>Artboard</title>
    <desc>Created with Sketch.</desc>
    <defs></defs>
    <g id="Page-1" stroke="none" stroke-width="1" fill="none" fill-rule="evenodd">
        <g id="Artboard">
            <g id="space-ship-1" transform="translate(28.500000, 36.500000) rotate(180.000000) translate(-28.500000, -36.500000) translate(2.000000, 5.000000)">
                <g id="Group">
                    <path d="M50.521,45.042 L42.521,45.042 L41.435,39.609 C40.834,36.601 40.907,33.498 41.651,30.522 L41.651,30.522 C42.227,28.219 43.194,26.031 44.512,24.056 L45.482,22.601 C45.977,21.859 47.067,21.859 47.562,22.601 L48.532,24.056 C49.849,26.032 50.817,28.219 51.393,30.522 L51.393,30.522 C52.137,33.497 52.211,36.601 51.609,39.609 L50.521,45.042 L50.521,45.042 Z" id="Shape" fill="#E6E6E6"></path>
                    <path d="M9.521,45.042 L1.521,45.042 L0.435,39.609 C-0.166,36.601 -0.093,33.498 0.651,30.522 L0.651,30.522 C1.227,28.219 2.194,26.031 3.512,24.056 L4.482,22.601 C4.977,21.859 6.067,21.859 6.562,22.601 L7.532,24.056 C8.849,26.032 9.817,28.219 10.393,30.522 L10.393,30.522 C11.137,33.497 11.211,36.601 10.609,39.609 L9.521,45.042 L9.521,45.042 Z" id="Shape" fill="#E6E6E6"></path>
                    <path d="M28.299,2.267 L26.032,0 L23.765,2.267 C13.803,12.229 12.093,27.318 18.636,39.04 C18.641,39.049 18.646,39.058 18.651,39.066 C20.143,41.706 21.032,44.646 21.032,47.678 L21.032,49.041 L31.032,49.041 L31.032,47.678 C31.032,44.645 31.923,41.706 33.413,39.065 C33.417,39.057 33.422,39.049 33.426,39.042 C39.971,27.32 38.261,12.229 28.299,2.267 L28.299,2.267 Z" id="Shape" fill="#E6E6E6"></path>
                    <g transform="translate(10.000000, 30.000000)" id="Shape" fill="#A5A5A4">
                        <path d="M26.584,0.637 C26.09,2.897 25.348,5.111 24.341,7.235 L31.905,11.963 L31.434,9.61 C31.03,7.589 30.938,5.526 31.142,3.486 L26.584,0.637 L26.584,0.637 Z"></path>
                        <path d="M5.48,0.637 L0.901,3.499 C1.103,5.534 1.011,7.593 0.608,9.609 L0.134,11.978 L7.724,7.234 C6.716,5.111 5.973,2.897 5.48,0.637 L5.48,0.637 Z"></path>
                    </g>
                    <circle id="Oval" fill="#556080" cx="26.032" cy="14.042" r="5"></circle>
                    <circle id="Oval" fill="#8697CB" cx="26.032" cy="27.042" r="3"></circle>
                    <circle id="Oval" fill="#8697CB" cx="26.032" cy="38.042" r="3"></circle>
                    <polygon id="Shape" fill="#38454F" points="32.032 56.042 20.032 56.042 21.032 49.042 31.032 49.042"></polygon>
                    <path d="M24.032,54.042 C23.48,54.042 23.032,53.594 23.032,53.042 L23.032,52.042 C23.032,51.49 23.48,51.042 24.032,51.042 C24.584,51.042 25.032,51.49 25.032,52.042 L25.032,53.042 C25.032,53.594 24.584,54.042 24.032,54.042 L24.032,54.042 Z" id="Shape" fill="#546A79"></path>
                    <path d="M28.032,54.042 C27.48,54.042 27.032,53.594 27.032,53.042 L27.032,52.042 C27.032,51.49 27.48,51.042 28.032,51.042 C28.584,51.042 29.032,51.49 29.032,52.042 L29.032,53.042 C29.032,53.594 28.584,54.042 28.032,54.042 L28.032,54.042 Z" id="Shape" fill="#546A79"></path>
                </g>
            </g>
        </g>
    </g>
</svg>
